packages/icons/svg/Inline/LikeOff.svg

<svg width="14" height="14" viewBox="0 0 14 14" fill="none" xmlns="http://www.w3.org/2000/svg">
<path d="M7 2.34275C7.84883 1.52637 8.94166 1 10 1C12.2091 1 14 2.79086 14 5C14 8.35329 11.8556 11.1905 7.73029 13.4897C7.27632 13.7428 6.72371 13.7428 6.26973 13.4897C2.14441 11.1905 0 8.35329 0 5C0 2.79086 1.79086 1 4 1C5.05834 1 6.15117 1.52637 7 2.34275Z" fill="#858585"/>
<path fill-rule="evenodd" clip-rule="evenodd" d="M10 2C8.8735 2 7.66089 2.85202 7 3.91823C6.33911 2.85202 5.1265 2 4 2C2.34315 2 1 3.34315 1 5C1 7.93851 2.91886 10.4773 6.75658 12.6163C6.9079 12.7006 7.0921 12.7006 7.24343 12.6163C11.0811 10.4773 13 7.93851 13 5C13 3.34315 11.6569 2 10 2Z" fill="white"/>
</svg>

<svg width="14" height="14" fill="none" xmlns="http://www.w3.org/2000/svg" viewBox="0 0 14 14"><path d="M7 2.343C7.849 1.526 8.942 1 10 1a4 4 0 014 4c0 3.353-2.144 6.19-6.27 8.49a1.5 1.5 0 01-1.46 0C2.144 11.19 0 8.353 0 5a4 4 0 014-4c1.058 0 2.151.526 3 1.343z" fill="currentColor"></path><path fill-rule="evenodd" clip-rule="evenodd" d="M10 2c-1.127 0-2.34.852-3 1.918C6.34 2.852 5.127 2 4 2a3 3 0 00-3 3c0 2.939 1.919 5.477 5.757 7.616a.5.5 0 00.486 0C11.081 10.477 13 7.94 13 5a3 3 0 00-3-3z" fill="#fff"></path></svg>
